resources/svg/webpack.svg

<svg xmlns="http://www.w3.org/2000/svg" viewBox="0 0 15 15" fill="currentColor"><path d="M8 4.21689L10.2491 5.56637L13.5183 3.93181L8 0.71283V4.21689Z" fill="black"/><path d="M7 0.71283L1.48172 3.93183L4.75084 5.56639L7 4.21689V0.71283Z" fill="black"/><path d="M1 4.809V10.2306L4.5 8.67506V6.559L1 4.809Z" fill="black"/><path d="M1.5232 11.0924L7 14.2872V10.7831L4.9656 9.56244L1.5232 11.0924Z" fill="black"/><path d="M8 14.2872L13.4768 11.0924L10.0344 9.56247L8 10.7831V14.2872Z" fill="black"/><path d="M14 10.2307V4.80897L10.5 6.55897V8.67511L14 10.2307Z" fill="black"/><path d="M8 9.61689L9.5 8.71689V7.05897L8 7.80897V9.61689Z" fill="black"/><path d="M7 7.809V9.61689L5.5 8.71689V7.059L7 7.809Z" fill="black"/><path d="M5.81101 6.09647L7.49997 6.94095L9.18896 6.09646L7.5 5.08308L5.81101 6.09647Z" fill="black"/></svg>

<svg xmlns="http://www.w3.org/2000/svg" viewBox="0 0 15 15" fill="currentColor"><path d="M8 4.217l2.25 1.35 3.268-1.635L8 .712v3.505zM7 .713L1.482 3.932 4.75 5.566 7 4.216V.714zM1 4.809v5.422l3.5-1.556V6.56L1 4.809zm.523 6.283L7 14.287v-3.504l-2.034-1.22-3.443 1.53zM8 14.287l5.477-3.195-3.443-1.53L8 10.783v3.504zm6-4.057V4.81l-3.5 1.75v2.116l3.5 1.556zm-6-.613l1.5-.9V7.059l-1.5.75v1.808zM7 7.809v1.808l-1.5-.9V7.059l1.5.75zM5.811 6.096l1.689.845 1.689-.845L7.5 5.083 5.811 6.096z" fill="currentColor"/></svg>
